X:1
T:Earl of Fife's Fireside, The
T:Earl of Fife's Fireside, The
T:Robert Petrie
C:Robert Petrie
L:1/8
M:2/2
K:F
V:1 treble 
V:1
 c | A<F TF2 C>F TF2 | A>F A/B/c/A/ BGGB | A<F TF2 C<F TF2 | B<Gc>B AFF :| c | (f/e/f/g/) fc AcAF | %7
 Bd d/c/B/A/ BGGe | (f/e/f/g/) fc dfdB | df ef/g/ af fg/a/ | (3bag (3agf (3gfe (3fed | %11
 d/c/B/A/ fA BGGB | (3FAF (3cAc (3dBd (3fdf | (3efg (3gab (3aff z || %14

